packages/icons/src/assets/raw/outlined/SVG/outlined-finance-money.svg

<svg viewBox="0 0 24 24" xmlns="http://www.w3.org/2000/svg">
  <path d="M 12 21.5 C 4.687 21.5 0.116 13.583 3.773 7.25 C 7.429 0.917 16.571 0.917 20.227 7.25 C 21.061 8.694 21.5 10.332 21.5 12 C 21.494 17.244 17.244 21.494 12 21.5 Z M 12 3.5 C 5.457 3.5 1.367 10.583 4.639 16.25 C 7.91 21.917 16.09 21.917 19.361 16.25 C 20.107 14.958 20.5 13.492 20.5 12 C 20.494 7.308 16.692 3.506 12 3.5 Z M 10.74 16.79 C 10.077 16.459 9.576 15.875 9.35 15.17 C 9.254 14.887 9.207 14.589 9.21 14.29 C 9.21 14.014 9.434 13.79 9.71 13.79 C 9.984 13.795 10.205 14.016 10.21 14.29 C 10.21 14.483 10.241 14.676 10.3 14.86 C 10.46 15.294 10.778 15.651 11.19 15.86 C 11.618 16.077 12.115 16.113 12.57 15.96 C 13.319 15.697 13.815 14.984 13.8 14.19 C 13.805 13.699 13.524 13.25 13.08 13.04 L 10.57 11.83 C 9.749 11.435 9.223 10.611 9.21 9.7 C 9.189 8.64 9.786 7.664 10.74 7.2 C 10.981 7.08 11.237 6.996 11.5 6.95 L 11.5 6.25 C 11.5 5.865 11.917 5.625 12.25 5.817 C 12.405 5.906 12.5 6.071 12.5 6.25 L 12.5 6.953 C 13.062 7.052 13.586 7.317 14 7.72 C 14.533 8.249 14.832 8.969 14.83 9.72 C 14.83 9.996 14.606 10.22 14.33 10.22 C 14.054 10.22 13.83 9.996 13.83 9.72 C 13.828 9.24 13.638 8.781 13.3 8.44 C 12.974 8.121 12.543 7.934 12.089 7.912 C 12.06 7.917 12.03 7.92 12 7.92 C 11.972 7.92 11.944 7.918 11.917 7.913 C 11.671 7.928 11.431 7.991 11.21 8.1 C 10.589 8.383 10.196 9.008 10.21 9.69 C 10.19 10.245 10.5 10.759 11 11 L 13.52 12.21 C 14.291 12.581 14.786 13.355 14.8 14.21 C 14.85 15.46 14.073 16.594 12.89 17 C 12.762 17.035 12.631 17.06 12.5 17.076 L 12.5 17.75 C 12.5 18.026 12.276 18.25 12 18.25 C 11.724 18.25 11.5 18.026 11.5 17.75 L 11.5 17.044 C 11.237 16.997 10.981 16.911 10.74 16.79 Z"/>
</svg>

<svg xmlns="http://www.w3.org/2000/svg" viewBox="0 0 24 24">
  <path d="M12 21.5a9.5 9.5 0 119.5-9.5 9.51 9.51 0 01-9.5 9.5zm0-18a8.5 8.5 0 108.5 8.5A8.51 8.51 0 0012 3.5z"/>
  <path d="M12 17.09a2.81 2.81 0 01-1.26-.3 2.75 2.75 0 01-1.39-1.62 2.66 2.66 0 01-.14-.88.5.5 0 01.5-.5.51.51 0 01.5.5 1.88 1.88 0 00.09.57 1.83 1.83 0 00.89 1 1.79 1.79 0 001.38.1 1.84 1.84 0 001.23-1.77 1.26 1.26 0 00-.72-1.15l-2.51-1.21A2.4 2.4 0 019.21 9.7a2.72 2.72 0 011.53-2.5A2.75 2.75 0 0112 6.91a2.86 2.86 0 012 .81 2.81 2.81 0 01.83 2 .5.5 0 01-.5.5.5.5 0 01-.5-.5 1.83 1.83 0 00-.53-1.28 1.86 1.86 0 00-1.3-.53 1.84 1.84 0 00-.79.19 1.71 1.71 0 00-1 1.59A1.4 1.4 0 0011 11l2.52 1.21a2.26 2.26 0 011.28 2A2.83 2.83 0 0112.89 17a2.72 2.72 0 01-.89.09z"/>
  <path d="M12 18.25a.5.5 0 01-.5-.5v-1.17a.5.5 0 011 0v1.17a.5.5 0 01-.5.5zM12 7.92a.5.5 0 01-.5-.5V6.25a.5.5 0 011 0v1.17a.5.5 0 01-.5.5z"/>
</svg>
